packages/kaspersky-hexa-ui-icons/src/iconsSVGs/16/Destinations.svg

<svg width="16" height="16" viewBox="0 0 16 16" fill="none" xmlns="http://www.w3.org/2000/svg">
<path d="M12.4441 0.999756C12.0989 0.999756 11.8191 1.27958 11.8191 1.62476V1.73227C11.1287 1.73227 10.5691 2.29192 10.5691 2.98227V4.12476C10.2239 4.12476 9.94407 4.40458 9.94407 4.74976C9.94407 5.09493 10.2239 5.37476 10.5691 5.37476H11.8191C11.8191 5.71993 12.0989 5.99976 12.4441 5.99976C12.7892 5.99976 13.0691 5.71993 13.0691 5.37476H14.3191C14.6642 5.37476 14.9441 5.09493 14.9441 4.74976C14.9441 4.40458 14.6642 4.12476 14.3191 4.12476V2.98227C14.3191 2.29192 13.7594 1.73227 13.0691 1.73227V1.62476C13.0691 1.27958 12.7892 0.999756 12.4441 0.999756Z" fill="black"/>
<path d="M9.79407 8.99976C9.79407 8.64077 10.0851 8.34976 10.4441 8.34976C10.8031 8.34976 11.0941 8.64077 11.0941 8.99976L11.0941 11.779L11.4844 11.3886C11.7383 11.1348 12.1498 11.1348 12.4037 11.3886C12.6575 11.6425 12.6575 12.054 12.4037 12.3079L10.9037 13.8079C10.6498 14.0617 10.2383 14.0617 9.98445 13.8079L8.48445 12.3079C8.23061 12.054 8.23061 11.6425 8.48445 11.3886C8.73829 11.1348 9.14984 11.1348 9.40368 11.3886L9.79407 11.779V8.99976Z" fill="black"/>
<path d="M5.44407 14.0002C5.08508 14.0002 4.79407 13.7092 4.79407 13.3502V10.569L4.40368 10.9594C4.14984 11.2132 3.73829 11.2132 3.48445 10.9594C3.23061 10.7055 3.23061 10.294 3.48445 10.0401L4.98445 8.54014C5.23829 8.2863 5.64984 8.2863 5.90368 8.54014L7.40369 10.0401C7.65753 10.294 7.65753 10.7055 7.40369 10.9594C7.14984 11.2132 6.73829 11.2132 6.48445 10.9594L6.09407 10.569V13.3502C6.09407 13.7092 5.80305 14.0002 5.44407 14.0002Z" fill="black"/>
<path d="M12.0174 7.25231C11.6286 7.16433 11.2844 6.95868 11.0243 6.67476H10.5691C9.96089 6.67476 9.41859 6.39272 9.06582 5.95231H3.00566C2.64668 5.95231 2.35566 5.6613 2.35566 5.30231V3.99511C2.35566 3.63612 2.64668 3.34511 3.00566 3.34511H9.25278L9.26907 3.33001V2.98227C9.26907 2.65138 9.33209 2.33521 9.44679 2.04511H3.00566C1.92871 2.04511 1.05566 2.91815 1.05566 3.99511V5.30231C1.05566 6.37927 1.92871 7.25231 3.00566 7.25231H12.0174Z" fill="black"/>
<path d="M4.42924 5.3987C4.84346 5.3987 5.17924 5.06291 5.17924 4.6487C5.17924 4.23448 4.84346 3.8987 4.42924 3.8987C4.01503 3.8987 3.67924 4.23448 3.67924 4.6487C3.67924 5.06291 4.01503 5.3987 4.42924 5.3987Z" fill="black"/>
</svg>

<svg xmlns="http://www.w3.org/2000/svg" width="16" height="16" fill="none" viewBox="0 0 16 16"><path d="M0 16h16V0H0z"/><path fill="#000" fill-rule="evenodd" d="M12.4442.9998a.625.625 0 0 0-.625.625v.1075c-.6904 0-1.25.5596-1.25 1.25v1.1425a.625.625 0 1 0 0 1.25h1.25a.625.625 0 1 0 1.25 0h1.25a.625.625 0 1 0 0-1.25V2.9823c0-.6904-.5597-1.25-1.25-1.25v-.1075a.625.625 0 0 0-.625-.625m-.4267 6.2525a1.924 1.924 0 0 1-.9931-.5775h-.4552c-.6082 0-1.1505-.282-1.5032-.7225H3.0058a.65.65 0 0 1-.65-.65V3.9951a.65.65 0 0 1 .65-.65h6.2471l.0163-.015v-.3478c0-.331.063-.647.1777-.9372H3.0058c-1.077 0-1.95.873-1.95 1.95v1.3072c0 1.077.873 1.95 1.95 1.95zM5.1794 4.6487a.75.75 0 1 1-1.5 0 .75.75 0 0 1 1.5 0m.2648 9.3515a.65.65 0 0 1-.65-.65V10.569l-.3904.3904a.65.65 0 0 1-.9192-.9193l1.5-1.5a.65.65 0 0 1 .9192 0l1.5 1.5a.65.65 0 0 1-.9192.9193l-.3904-.3904v2.7812a.65.65 0 0 1-.65.65m5-5.6504a.65.65 0 0 0-.65.65v2.7792l-.3904-.3904a.65.65 0 0 0-.9192.9193l1.5 1.5a.65.65 0 0 0 .9192 0l1.5-1.5a.65.65 0 0 0-.9192-.9193l-.3904.3904V8.9998a.65.65 0 0 0-.65-.65"/><path d="M11.8192 1.6248v.1075c-.6904 0-1.25.5596-1.25 1.25v1.1425a.625.625 0 1 0 0 1.25h1.25a.625.625 0 1 0 1.25 0h1.25a.625.625 0 1 0 0-1.25V2.9823c0-.6904-.5597-1.25-1.25-1.25v-.1075a.625.625 0 1 0-1.25 0m-1.375 6.725a.65.65 0 0 1 .65.65v2.7792l.3904-.3904a.65.65 0 0 1 .9192.9193l-1.5 1.5a.65.65 0 0 1-.9192 0l-1.5-1.5a.65.65 0 0 1 .9192-.9193l.3904.3904V8.9998a.65.65 0 0 1 .65-.65m-5.65 5.0004V10.569l-.3904.3904a.65.65 0 0 1-.9192-.9193l1.5-1.5a.65.65 0 0 1 .9192 0l1.5 1.5a.65.65 0 0 1-.9192.9193l-.3904-.3904v2.7812a.65.65 0 1 1-1.3 0m6.2302-6.6754h-.4552c-.6082 0-1.1505-.282-1.5033-.7225H3.0058a.65.65 0 0 1-.65-.65V3.9951a.65.65 0 0 1 .65-.65h6.2471l.0163-.015v-.3478c0-.331.063-.647.1777-.9372H3.0058c-1.077 0-1.95.873-1.95 1.95v1.3072c0 1.077.873 1.95 1.95 1.95h9.0117a1.924 1.924 0 0 1-.9931-.5775m-5.845-2.0261a.75.75 0 1 0-1.5 0 .75.75 0 0 0 1.5 0"/></svg>
